X:31
T:Dance in Rob Roy. JBu.31
O:England,South Yorkshire
S:Joshua Burnett’s MS,c1835,S.Yorkshire
M:C|
L:1/8
Q:1/2=80
R:reel
Z:vmp.R.Greig.2011
K:D
FABA FABA|FAdf gee2|FABA dcBA|Bdce fdd2:|
|:fdge afed|Bcde cAA2|fdge afed|Bdce fdd2:|

